X:1
T:Title
%%score { ( 1 4 ) | ( 2 3 ) }
L:1/8
Q:1/4=100
M:4/4
K:G
V:1 treble nm="Grand Piano"
V:4 treble 
V:2 treble 
V:3 treble 
V:1
 [DB]3 A AG c>B | [DB]2 A6 | [CD]3 c cB B>_B | [DB]6 z2 | [DB]3 A AG c>B | B2 A6 | %6
w: Robert~Harkness * * * * *||||||
 [^CA]3 G FF [B,G]>E | z2 [Fc]2 [FBd]2 [FAd]2 | d3- [Ad-] [Ad-][Gd] d->[Bd] | [Gd]2 [Fd]6 | %10
w: ||||
 [Fc]3 [Ac] [Gc][Fc] [Ec]>c | B6 z2 | d3 d [A^d][Ad][AB][AB] | [Ge]4 E4 | D3 [Gd] [Ge][Gd] [GB]>A | %15
w: |||||
[M:11/8] G-G-G-G-G-G- G3 z2 |] %16
w: |
V:2
 z2 z C CB, E>D | z2 C6 | z2 z E E[K:treble]D D>^C | G,6 z2 | z2 z C CB, E>D | [D,G,D]2 [D,F,D]6 | %6
 z2 z E DA, z z/ ^C/ | z2[K:treble] E2 C2 C2 | z2 z C C[K:bass]B, z z/ D/ | [D,B,]2 [D,A,]6 | %10
 [D,A,]3 [D,C] [D,B,][D,A,] [D,G,]>[D,F,D] | [G,D]6 z2 | %12
 [G,B,G]3 [G,B,G][K:bass] [F,B,][F,B,][F,B,][F,B,] | [E,B,]4 [C,A,]4 | %14
 [D,B,]3 [D,B,] [D,C][D,B,] [D,D]>[D,CD] | %15
[M:11/8][K:treble] [G,B,D]-[G,B,D]-[G,B,D]-[G,B,D]-[G,B,D]-[G,B,D]- [G,B,D]3 z2 |] %16
V:3
 G,8 | D,8 | D,8[K:treble] | x8 | G,8 | x8 | A,,6 A,2 | D,6[K:treble] z2 | G,6[K:bass] G,2 | x8 | %10
 x8 | x8 | x4[K:bass] x4 | x8 | x8 |[M:11/8][K:treble] x11 |] %16
V:4
 x8 | x8 | x8 | x8 | x8 | x8 | x8 | D6 z2 | [DB]4 z2 [Ec]2 | x8 | x8 | x8 | x8 | x8 | x8 | %15
[M:11/8] x11 |] %16

